; generated by Slic3r 0.9.7 on 2012-12-06 at 09:34:58

; layer_height = 0.4
; perimeters = 3
; top_solid_layers = 3
; bottom_solid_layers = 3
; fill_density = 0.4
; perimeter_speed = 30
; infill_speed = 60
; travel_speed = 130
; scale = 1
; nozzle_diameter = 0.5
; filament_diameter = 3
; extrusion_multiplier = 1
; perimeters extrusion width = 0.53mm
; infill extrusion width = 0.53mm
; first layer extrusion width = 0.80mm

M104 S200 ; set temperature
G28 ; home all axes
M109 S200 ; wait for temperature to be reached
G90 ; use absolute coordinates
G21 ; set units to millimeters
G92 E0
M82 ; use absolute distances for extrusion
G1 F1800.000 E-1.00000
G92 E0
G1 Z0.400 F7800.000
G1 X96.659 Y81.671
G1 F1800.000 E1.00000
G1 X97.069 Y81.241 F540.000 E1.02473
G1 X97.509 Y80.841 E1.04949
G1 X97.979 Y80.481 E1.07413
G1 X98.469 Y80.141 E1.09896
G1 X98.989 Y79.851 E1.12374
G1 X99.519 Y79.591 E1.14832
G1 X100.069 Y79.371 E1.17298
G1 X100.349 Y79.281 E1.18522
G1 X100.929 Y79.121 E1.21026
G1 X101.219 Y79.061 E1.22259
G1 X102.099 Y78.931 E1.25962
G1 X102.389 Y78.911 E1.27172
G1 X104.859 Y78.791 E1.37466
G1 X105.149 Y78.791 E1.38674
G1 X105.739 Y78.831 E1.41135
G1 X106.319 Y78.901 E1.43567
G1 X106.899 Y79.021 E1.46033
G1 X107.469 Y79.181 E1.48497
G1 X107.749 Y79.271 E1.49722
G1 X108.289 Y79.491 E1.52149
G1 X108.819 Y79.751 E1.54606
G1 X109.329 Y80.041 E1.57048
G1 X109.579 Y80.201 E1.58284
G1 X110.049 Y80.551 E1.60723
G1 X110.719 Y81.131 E1.64412
G1 X111.119 Y81.561 E1.66857
G1 X111.499 Y82.011 E1.69309
G1 X111.999 Y82.741 E1.72992
G1 X112.279 Y83.251 E1.75414
G1 X112.639 Y84.061 E1.79104
G1 X112.909 Y84.901 E1.82777
G1 X113.039 Y85.471 E1.85210
G1 X113.159 Y86.351 E1.88908
G1 X113.189 Y86.941 E1.91367
G1 X113.219 Y90.821 E2.07519
G1 X113.219 Y112.881 E2.99349
G1 X113.199 Y113.471 E3.01807
G1 X113.089 Y114.341 E3.05457
G1 X113.029 Y114.631 E3.06690
G1 X112.879 Y115.201 E3.09143
G1 X112.699 Y115.761 E3.11592
G1 X112.339 Y116.571 E3.15282
G1 X112.059 Y117.081 E3.17704
G1 X111.739 Y117.581 E3.20175
G1 X111.389 Y118.051 E3.22614
G1 X110.999 Y118.491 E3.25062
G1 X110.579 Y118.911 E3.27534
G1 X110.139 Y119.291 E3.29954
G1 X109.659 Y119.641 E3.32427
G1 X109.169 Y119.961 E3.34864
G1 X108.649 Y120.241 E3.37322
G1 X108.109 Y120.481 E3.39782
G1 X107.559 Y120.681 E3.42218
G1 X107.279 Y120.771 E3.43442
G1 X106.709 Y120.911 E3.45886
G1 X106.419 Y120.971 E3.47119
G1 X105.839 Y121.051 E3.49556
G1 X102.889 Y121.151 E3.61843
G1 X102.009 Y121.091 E3.65515
G1 X101.129 Y120.941 E3.69231
G1 X100.559 Y120.791 E3.71684
G1 X99.999 Y120.601 E3.74146
G1 X99.459 Y120.371 E3.76589
G1 X98.929 Y120.101 E3.79065
G1 X98.429 Y119.791 E3.81514
G1 X97.949 Y119.451 E3.83963
G1 X97.489 Y119.071 E3.86447
G1 X97.279 Y118.871 E3.87654
G1 X96.859 Y118.451 E3.90126
G1 X96.479 Y117.991 E3.92610
G1 X96.139 Y117.511 E3.95059
G1 X95.819 Y117.011 E3.97530
G1 X95.549 Y116.491 E3.99969
G1 X95.309 Y115.951 E4.02429
G1 X95.029 Y115.101 E4.06154
G1 X94.899 Y114.531 E4.08588
G1 X94.799 Y113.951 E4.11038
G1 X94.749 Y113.361 E4.13503
G1 X94.559 Y109.621 E4.29091
G1 X94.559 Y86.881 E5.23753
G1 X94.609 Y86.241 E5.26425
G1 X94.709 Y85.611 E5.29080
G1 X94.859 Y84.991 E5.31736
G1 X95.049 Y84.381 E5.34395
G1 X95.439 Y83.501 E5.38402
G1 X95.779 Y82.871 E5.41382
G1 X96.109 Y82.371 E5.43876
G1 X96.588 Y81.756 E5.47123
G1 X96.659 Y81.671 E5.47582
G1 X97.299 Y82.071 F7800.000
G1 X97.709 Y81.651 F540.000 E5.50025
G1 X98.149 Y81.271 E5.52445
G1 X98.619 Y80.931 E5.54860
G1 X99.109 Y80.621 E5.57274
G1 X99.629 Y80.351 E5.59713
G1 X100.159 Y80.121 E5.62118
G1 X100.989 Y79.861 E5.65738
G1 X101.559 Y79.741 E5.68163
G1 X102.139 Y79.671 E5.70595
G1 X104.599 Y79.541 E5.80850
G1 X105.439 Y79.541 E5.84347
G1 X106.279 Y79.641 E5.87868
G1 X107.099 Y79.831 E5.91372
G1 X107.629 Y80.011 E5.93702
G1 X108.139 Y80.231 E5.96014
G1 X108.639 Y80.491 E5.98360
G1 X109.119 Y80.781 E6.00694
G1 X109.789 Y81.291 E6.04200
G1 X110.209 Y81.661 E6.06530
G1 X110.589 Y82.071 E6.08857
G1 X110.949 Y82.501 E6.11191
G1 X111.269 Y82.961 E6.13524
G1 X111.549 Y83.451 E6.15873
G1 X111.799 Y83.951 E6.18200
G1 X112.009 Y84.471 E6.20535
G1 X112.179 Y85.001 E6.22851
G1 X112.359 Y85.831 E6.26387
G1 X112.429 Y86.381 E6.28695
G1 X112.449 Y86.941 E6.31028
G1 X112.479 Y90.821 E6.47179
G1 X112.479 Y113.161 E7.40175
G1 X112.399 Y114.001 E7.43688
G1 X112.349 Y114.281 E7.44872
G1 X112.149 Y115.091 E7.48345
G1 X111.959 Y115.621 E7.50689
G1 X111.609 Y116.391 E7.54210
G1 X111.169 Y117.111 E7.57722
G1 X111.009 Y117.341 E7.58889
G1 X110.469 Y117.981 E7.62374
G1 X109.859 Y118.571 E7.65907
G1 X109.189 Y119.081 E7.69412
G1 X108.949 Y119.231 E7.70590
G1 X108.459 Y119.511 E7.72940
G1 X107.949 Y119.751 E7.75286
G1 X107.429 Y119.951 E7.77605
G1 X106.889 Y120.111 E7.79950
G1 X106.619 Y120.181 E7.81111
G1 X106.069 Y120.281 E7.83438
G1 X105.229 Y120.351 E7.86947
G1 X102.889 Y120.411 E7.96691
G1 X102.039 Y120.361 E8.00235
G1 X101.759 Y120.321 E8.01413
G1 X101.209 Y120.211 E8.03747
G1 X100.659 Y120.051 E8.06132
G1 X99.869 Y119.751 E8.09650
G1 X99.119 Y119.361 E8.13168
G1 X98.649 Y119.051 E8.15512
G1 X98.199 Y118.711 E8.17860
G1 X97.779 Y118.331 E8.20218
G1 X97.389 Y117.931 E8.22543
G1 X96.859 Y117.271 E8.26067
G1 X96.409 Y116.551 E8.29601
G1 X96.149 Y116.051 E8.31947
G1 X95.939 Y115.521 E8.34320
G1 X95.759 Y114.991 E8.36651
G1 X95.689 Y114.711 E8.37852
G1 X95.579 Y114.161 E8.40187
G1 X95.509 Y113.601 E8.42536
G1 X95.289 Y109.201 E8.60875
G1 X95.299 Y86.881 E9.53788
G1 X95.349 Y86.261 E9.56377
G1 X95.449 Y85.631 E9.59032
G1 X95.609 Y85.021 E9.61658
G1 X95.819 Y84.431 E9.64265
G1 X96.079 Y83.851 E9.66910
G1 X96.579 Y82.981 E9.71088
G1 X96.919 Y82.511 E9.73502
G1 X97.225 Y82.153 E9.75463
G1 X97.299 Y82.071 E9.75923
G1 X97.879 Y82.521 F7800.000
G1 X98.069 Y82.321 F540.000 E9.77071
G1 X98.479 Y81.951 E9.79370
G1 X98.909 Y81.621 E9.81626
G1 X99.359 Y81.321 E9.83878
G1 X99.839 Y81.061 E9.86150
G1 X100.339 Y80.841 E9.88424
G1 X100.859 Y80.661 E9.90715
G1 X101.119 Y80.591 E9.91836
G1 X101.659 Y80.471 E9.94138
G1 X102.469 Y80.381 E9.97531
G1 X104.909 Y80.261 E10.07700
G1 X105.449 Y80.281 E10.09950
G1 X105.989 Y80.341 E10.12211
G1 X106.529 Y80.441 E10.14497
G1 X106.789 Y80.511 E10.15618
G1 X107.559 Y80.781 E10.19015
G1 X108.049 Y81.011 E10.21268
G1 X108.529 Y81.271 E10.23541
G1 X109.189 Y81.741 E10.26914
G1 X109.799 Y82.291 E10.30333
G1 X110.159 Y82.691 E10.32573
G1 X110.489 Y83.131 E10.34862
G1 X110.919 Y83.821 E10.38247
G1 X111.259 Y84.561 E10.41637
G1 X111.349 Y84.811 E10.42743
G1 X111.509 Y85.331 E10.45008
G1 X111.619 Y85.871 E10.47302
G1 X111.689 Y86.411 E10.49568
G1 X111.719 Y86.951 E10.51820
G1 X111.749 Y90.831 E10.67972
G1 X111.739 Y113.151 E11.60884
G1 X111.699 Y113.681 E11.63097
G1 X111.559 Y114.461 E11.66396
G1 X111.409 Y114.971 E11.68609
G1 X111.229 Y115.471 E11.70821
G1 X110.879 Y116.191 E11.74153
G1 X110.599 Y116.641 E11.76360
G1 X110.279 Y117.071 E11.78591
G1 X109.929 Y117.481 E11.80835
G1 X109.359 Y118.031 E11.84132
G1 X108.489 Y118.651 E11.88579
G1 X107.779 Y119.021 E11.91912
G1 X107.289 Y119.221 E11.94115
G1 X106.779 Y119.381 E11.96340
G1 X106.259 Y119.501 E11.98562
G1 X105.739 Y119.581 E12.00752
G1 X105.469 Y119.601 E12.01879
G1 X102.879 Y119.681 E12.12665
G1 X102.339 Y119.651 E12.14917
G1 X101.809 Y119.581 E12.17142
G1 X101.289 Y119.471 E12.19355
G1 X100.779 Y119.321 E12.21568
G1 X100.039 Y119.011 E12.24908
G1 X99.329 Y118.621 E12.28280
G1 X98.889 Y118.321 E12.30496
G1 X98.479 Y117.981 E12.32714
G1 X98.279 Y117.801 E12.33834
G1 X97.909 Y117.411 E12.36072
G1 X97.569 Y117.001 E12.38289
G1 X97.269 Y116.561 E12.40506
G1 X96.879 Y115.861 E12.43841
G1 X96.579 Y115.121 E12.47165
G1 X96.489 Y114.861 E12.48311
G1 X96.359 Y114.341 E12.50542
G1 X96.239 Y113.551 E12.53868
G1 X96.019 Y109.201 E12.71999
G1 X96.029 Y86.921 E13.64745
G1 X96.079 Y86.351 E13.67127
G1 X96.169 Y85.791 E13.69488
G1 X96.319 Y85.241 E13.71862
G1 X96.509 Y84.701 E13.74245
G1 X96.739 Y84.181 E13.76611
G1 X97.059 Y83.601 E13.79369
G1 X97.359 Y83.151 E13.81620
G1 X97.805 Y82.603 E13.84562
G1 X97.879 Y82.521 E13.85021
G1 F1800.000 E12.85021
G92 E0
G1 X96.060 Y106.822 F7800.000
G1 F1800.000 E1.00000
G1 X97.944 Y105.275 F540.000 E1.10147
G1 X100.834 Y105.560 E1.22236
G1 X102.117 Y102.955 E1.34325
G1 X104.425 Y102.170 E1.44473
G1 X107.330 Y103.600 E1.57950
G1 X107.755 Y104.850 E1.63448
G1 X109.220 Y104.478 E1.69742
G1 X111.316 Y105.723 E1.79889
G1 X112.114 Y108.860 E1.93367
G1 X111.162 Y110.463 E2.01126
G1 X111.950 Y111.246 E2.05750
G1 X111.960 Y114.483 E2.19227
G1 X110.241 Y116.212 E2.29374
G1 X109.800 Y116.214 E2.31209
G1 X108.832 Y116.938 E2.36243
G1 X103.908 Y116.231 E2.56953
G1 X103.581 Y116.232 E2.58313
G1 X98.376 Y117.130 E2.80302
G1 X96.384 Y115.725 E2.90449
G1 X95.833 Y112.535 E3.03927
G1 X96.737 Y111.255 E3.10447
G1 X95.743 Y110.044 E3.16969
G1 X96.049 Y106.931 E3.29987
G1 X96.060 Y106.822 E3.30446
G1 F1800.000 E2.30446
G92 E0
G1 X98.376 Y95.130 F7800.000
G1 F1800.000 E1.00000
G1 X96.384 Y93.725 F540.000 E1.10147
G1 X95.833 Y90.535 E1.23625
G1 X96.737 Y89.255 E1.30145
G1 X95.743 Y88.044 E1.36667
G1 X96.060 Y84.822 E1.50144
G1 X97.944 Y83.275 E1.60292
G1 X100.834 Y83.560 E1.72381
G1 X102.117 Y80.955 E1.84470
G1 X104.425 Y80.170 E1.94617
G1 X107.330 Y81.600 E2.08094
G1 X107.755 Y82.850 E2.13592
G1 X109.220 Y82.478 E2.19886
G1 X111.316 Y83.723 E2.30033
G1 X112.114 Y86.860 E2.43511
G1 X111.162 Y88.463 E2.51270
G1 X111.950 Y89.246 E2.55894
G1 X111.960 Y92.483 E2.69372
G1 X110.241 Y94.212 E2.79519
G1 X109.800 Y94.214 E2.81354
G1 X108.832 Y94.938 E2.86387
G1 X103.908 Y94.231 E3.07097
G1 X103.581 Y94.232 E3.08457
G1 X98.485 Y95.112 E3.29987
G1 X98.376 Y95.130 E3.30446
G1 F1800.000 E2.30446
G92 E0
G1 X102.643 Y103.553 F7800.000
G1 F1800.000 E1.00000
G1 X104.374 Y102.964 F540.000 E1.07610
G1 X106.731 Y104.125 E1.18551
G1 X107.277 Y105.731 E1.25611
G1 X109.106 Y105.266 E1.33467
G1 X110.678 Y106.200 E1.41078
G1 X111.326 Y108.747 E1.52018
G1 X110.392 Y110.318 E1.59629
G1 X110.059 Y110.403 E1.61062
G1 X111.215 Y111.553 E1.67850
G1 X111.223 Y114.181 E1.78791
G1 X109.934 Y115.478 E1.86401
G1 X109.554 Y115.479 E1.87982
G1 X108.635 Y116.167 E1.92761
G1 X103.959 Y115.495 E2.12426
G1 X103.517 Y115.497 E2.14267
G1 X98.551 Y116.354 E2.35246
G1 X97.057 Y115.300 E2.42856
G1 X96.610 Y112.710 E2.53797
G1 X97.640 Y111.250 E2.61234
G1 X97.647 Y111.204 E2.61427
G1 X96.505 Y109.813 E2.68921
G1 X96.762 Y107.197 E2.79862
G1 X98.175 Y106.037 E2.87472
G1 X101.269 Y106.342 E3.00413
G1 X102.594 Y103.652 E3.12895
G1 X102.643 Y103.553 E3.13355
G1 F1800.000 E2.13355
G92 E0
G1 X98.551 Y94.354 F7800.000
G1 F1800.000 E1.00000
G1 X97.057 Y93.300 F540.000 E1.07610
G1 X96.610 Y90.710 E1.18551
G1 X97.640 Y89.250 E1.25988
G1 X97.647 Y89.204 E1.26181
G1 X96.505 Y87.813 E1.33675
G1 X96.762 Y85.197 E1.44616
G1 X98.175 Y84.037 E1.52226
G1 X101.269 Y84.342 E1.65167
G1 X102.643 Y81.553 E1.78109
G1 X104.374 Y80.964 E1.85719
G1 X106.731 Y82.125 E1.96660
G1 X107.277 Y83.731 E2.03720
G1 X109.106 Y83.266 E2.11576
G1 X110.678 Y84.199 E2.19186
G1 X111.326 Y86.747 E2.30127
G1 X110.392 Y88.318 E2.37737
G1 X110.059 Y88.403 E2.39171
G1 X111.215 Y89.553 E2.45959
G1 X111.223 Y92.181 E2.56899
G1 X109.934 Y93.478 E2.64510
G1 X109.554 Y93.479 E2.66090
G1 X108.635 Y94.167 E2.70870
G1 X103.959 Y93.495 E2.90535
G1 X103.517 Y93.497 E2.92376
G1 X98.660 Y94.335 E3.12895
G1 X98.551 Y94.354 E3.13355
G1 F1800.000 E2.13355
G92 E0
G1 X103.168 Y104.151 F7800.000
G1 F1800.000 E1.00000
G1 X104.322 Y103.759 F540.000 E1.05074
G1 X106.133 Y104.651 E1.13477
G1 X106.525 Y105.805 E1.18551
G1 X106.032 Y106.807 E1.23204
G1 X108.993 Y106.054 E1.35922
G1 X110.040 Y106.676 E1.40995
G1 X110.538 Y108.633 E1.49399
G1 X109.916 Y109.680 E1.54473
G1 X107.871 Y110.201 E1.63254
G1 X107.909 Y110.194 E1.63412
G1 X108.905 Y110.897 E1.68486
G1 X108.923 Y111.002 E1.68931
G1 X109.616 Y111.000 E1.71817
G1 X110.481 Y111.860 E1.76890
G1 X110.487 Y113.878 E1.85294
G1 X109.627 Y114.743 E1.90368
G1 X109.309 Y114.744 E1.91694
G1 X108.438 Y115.395 E1.96220
G1 X104.011 Y114.760 E2.14840
G1 X103.453 Y114.761 E2.17162
G1 X98.726 Y115.577 E2.37130
G1 X97.730 Y114.874 E2.42204
G1 X97.387 Y112.885 E2.50607
G1 X98.090 Y111.889 E2.55681
G1 X98.297 Y111.853 E2.56556
G1 X98.413 Y111.045 E2.59954
G1 X98.985 Y110.617 E2.62931
G1 X98.040 Y110.524 E2.66885
G1 X97.267 Y109.581 E2.71959
G1 X97.464 Y107.572 E2.80363
G1 X98.407 Y106.799 E2.85436
G1 X101.704 Y107.124 E2.99230
G1 X103.119 Y104.250 E3.12564
G1 X103.168 Y104.151 E3.13023
G1 F1800.000 E2.13023
G92 E0
G1 X103.453 Y92.761 F7800.000
G1 F1800.000 E1.00000
G1 X98.726 Y93.577 F540.000 E1.19968
G1 X97.730 Y92.874 E1.25042
G1 X97.387 Y90.885 E1.33446
G1 X98.090 Y89.889 E1.38519
G1 X98.297 Y89.853 E1.39394
G1 X98.413 Y89.045 E1.42792
G1 X98.985 Y88.617 E1.45769
G1 X98.040 Y88.524 E1.49723
G1 X97.267 Y87.581 E1.54797
G1 X97.464 Y85.572 E1.63201
G1 X98.407 Y84.799 E1.68274
G1 X101.704 Y85.124 E1.82068
G1 X103.168 Y82.151 E1.95861
G1 X104.322 Y81.759 E2.00935
G1 X106.133 Y82.651 E2.09339
G1 X106.525 Y83.805 E2.14412
G1 X106.032 Y84.807 E2.19065
G1 X108.993 Y84.054 E2.31783
G1 X110.040 Y84.676 E2.36857
G1 X110.538 Y86.633 E2.45261
G1 X109.916 Y87.680 E2.50334
G1 X107.871 Y88.201 E2.59115
G1 X107.909 Y88.194 E2.59274
G1 X108.905 Y88.897 E2.64347
G1 X108.923 Y89.002 E2.64793
G1 X109.616 Y89.000 E2.67678
G1 X110.481 Y89.860 E2.72752
G1 X110.487 Y91.878 E2.81156
G1 X109.627 Y92.743 E2.86230
G1 X109.309 Y92.744 E2.87556
G1 X108.438 Y93.395 E2.92082
G1 X104.011 Y92.760 E3.10701
G1 X103.563 Y92.761 E3.12564
G1 X103.453 Y92.761 E3.13024
G1 F1800.000 E2.13024
G92 E0
G1 X104.270 Y104.553 F7800.000
G1 F1800.000 E1.00000
G1 X105.535 Y105.176 F540.000 E1.05867
G1 X105.731 Y105.753 E1.08404
G1 X104.667 Y107.914 E1.18430
G1 X108.879 Y106.842 E1.36522
G1 X109.403 Y107.153 E1.39059
G1 X109.750 Y108.519 E1.44926
G1 X109.439 Y109.043 E1.47463
G1 X104.221 Y110.371 E1.69876
G1 X104.093 Y110.381 E1.70409
G1 X103.482 Y110.320 E1.72968
G1 X102.872 Y111.558 E1.78712
G1 X103.669 Y111.673 E1.82062
G1 X107.734 Y110.971 E1.99234
G1 X108.232 Y111.322 E2.01771
G1 X108.304 Y111.740 E2.03535
G1 X109.314 Y111.737 E2.07739
G1 X109.746 Y112.167 E2.10276
G1 X109.750 Y113.576 E2.16143
G1 X109.320 Y114.008 E2.18679
G1 X108.765 Y114.010 E2.20992
G1 X108.729 Y114.259 E2.22039
G1 X108.241 Y114.624 E2.24575
G1 X104.062 Y114.024 E2.42150
G1 X103.389 Y114.026 E2.44953
G1 X98.901 Y114.800 E2.63911
G1 X98.403 Y114.449 E2.66448
G1 X98.164 Y113.060 E2.72315
G1 X98.515 Y112.562 E2.74851
G1 X98.949 Y112.487 E2.76684
G1 X99.098 Y111.451 E2.81040
G1 X99.585 Y111.086 E2.83577
G1 X100.508 Y111.219 E2.87455
G1 X101.067 Y110.083 E2.92727
G1 X98.415 Y109.821 E3.03820
G1 X98.028 Y109.350 E3.06357
G1 X98.167 Y107.948 E3.12224
G1 X98.638 Y107.561 E3.14761
G1 X102.139 Y107.906 E3.29407
G1 X103.693 Y104.750 E3.44052
G1 X104.166 Y104.589 E3.46130
G1 X104.270 Y104.553 E3.46589
G1 F1800.000 E2.46589
G92 E0
G1 X104.062 Y92.024 F7800.000
G1 F1800.000 E1.00000
G1 X103.389 Y92.026 F540.000 E1.02803
G1 X98.901 Y92.800 E1.21761
G1 X98.403 Y92.449 E1.24298
G1 X98.164 Y91.060 E1.30165
G1 X98.515 Y90.562 E1.32701
G1 X98.949 Y90.487 E1.34534
G1 X99.098 Y89.451 E1.38890
G1 X99.585 Y89.086 E1.41427
G1 X100.508 Y89.219 E1.45305
G1 X101.067 Y88.083 E1.50577
G1 X98.415 Y87.821 E1.61670
G1 X98.028 Y87.350 E1.64207
G1 X98.167 Y85.948 E1.70074
G1 X98.638 Y85.561 E1.72611
G1 X102.139 Y85.906 E1.87257
G1 X103.693 Y82.750 E2.01902
G1 X104.270 Y82.553 E2.04439
G1 X105.535 Y83.176 E2.10306
G1 X105.731 Y83.753 E2.12843
G1 X104.667 Y85.914 E2.22869
G1 X108.879 Y84.842 E2.40961
G1 X109.403 Y85.153 E2.43498
G1 X109.750 Y86.519 E2.49365
G1 X109.439 Y87.043 E2.51902
G1 X104.221 Y88.371 E2.74315
G1 X104.093 Y88.381 E2.74849
G1 X103.482 Y88.320 E2.77407
G1 X102.872 Y89.558 E2.83151
G1 X103.669 Y89.673 E2.86501
G1 X107.734 Y88.971 E3.03673
G1 X108.232 Y89.322 E3.06210
G1 X108.304 Y89.740 E3.07974
G1 X109.314 Y89.737 E3.12178
G1 X109.746 Y90.167 E3.14715
G1 X109.750 Y91.576 E3.20582
G1 X109.320 Y92.008 E3.23118
G1 X108.765 Y92.010 E3.25431
G1 X108.729 Y92.259 E3.26478
G1 X108.241 Y92.624 E3.29015
G1 X104.172 Y92.039 E3.46130
G1 X104.062 Y92.024 E3.46589
